X:1
T:I am the resurrection and the life  - Tomkins
T:James Gibb editions
%%score [ 1 2 3 4 ]
L:1/8
Q:1/4=80
M:4/4
K:Bb
V:1 treble nm="Soprano " snm="S"
V:2 treble nm="Alto" snm="A"
V:3 treble-8 nm="Tenor" snm="T"
V:4 bass nm="Bass" snm="B"
V:1
"^I am the resurrection and the life""^Thomas Tomkins\n(1572-1656)" z4 G4 | B6 F2 | GA B4 A2 | %3
w: I|am the|re- sur- rec- ti-|
 B2 d4 c2 | e2 d3 (c/B/ c2) | =B4 z2 G2 ||[M:3/4] A4 =B2 | c3 !courtesy!_B _A2 | G2 c4 | d3 d G2 | %10
w: on and the|life, saith the * *|Lord: he|that be-|liev- eth in|me, yea,|though he were|
 G4 d2 | e4 d2 ||[M:4/4] e4 z2 B2 | B2 B2 c2 c2 | c3 c c4 | c2 d4 B2 | A4 G2 B2- | BG B4 _A2 | G8 | %19
w: dead, yet|shall he|live: and|who- so- ev- er|liv- eth and|be- liev- eth|in me shall|* not die for|ev-|
 !fermata!G8 |] %20
w: er.|
V:2
 z4 D4 | E6 F2 | E2 D2 F3 F | F2 F3 (G _A2) | G4 G3 G | G4 z2 D2 ||[M:3/4] ^F4 G2 | G3 G F2 | %8
w: I|am the|re- sur- rec- ti-|on and the *|life, saith the|Lord: he|that be-|liev- eth in|
 =E4 C2 | G3 F E2 | D6 | G2 F3 F ||[M:4/4] G4 z2 G2 | G2 G2 E2 _A2 | G3 G A4 | A2 F3 D (G2- | %16
w: me, yea,|though he were|dead,|yet shall he|live: and|who- so- ev- er|liv- eth and|be- liev- eth in|
 G2 ^F2) G4 | G3 G F4- | F2 E2 D4 | !fermata!=E8 |] %20
w: * * me|shall not die|* for ev-|er.|
V:3
 z4 B4 | G6 B2 | B3 B c3 c | d2 d3 (e f2) | B4 c2 e2 | d4 z2 B2 ||[M:3/4][K:treble-8] d4 d2 | %7
w: I|am the|re- sur- rec- ti-|on and the *|life, saith the|Lord: he|that be-|
 c3 c c2 | c4 !courtesy!_e2 | d3 d c2 | =B4 z2 | !courtesy!_B2 c2 B2 ||[M:4/4] B4 z2 e2 | %13
w: liev- eth in|me, yea,|though he were|dead,|yet shall he|live: and|
 B2 e2 c3 f | =e3 e f4 | f2 d4 d2 | d4 d4 | e3 B d2 (c2 | =B2) (c4 B2) | !fermata!c8 |] %20
w: who- so- ev- er|liv- eth and|be- liev- eth|in me|shall not die for|* ev\- *|er.|
V:4
 G,8 | E,6 D,2 | E,2 G,2 F,3 F, | B,,4 B,2 F,2 | G,3 (F, E,2) C,2 | G,4 z2 G,2 ||[M:3/4] D,4 G,2 | %7
w: I|am the|re- sur- rec- ti-|on and the|life, saith * the|Lord: he|that be-|
 =E,3 E, F,2 | C,4 C,2 | =B,,3 D, E,2 | G,6 | E,2 _A,2 B,2 ||[M:4/4] E,4 z2 E,2 | %13
w: liev- eth in|me, yea,|though he were|dead,|yet shall he|live: and|
 E,2 E,2 _A,2 F,2 | C3 C F,4 | F,2 B,4 G,2 | D,4 G,4 | E,3 E, F,3 F, | G,8 | !fermata!C,8 |] %20
w: who- so- ev- er|liv- eth and|be- liev- eth|in me|shall not die for|ev-|er.|

